!!!SOCIAL_FUNCTION:	dream songs
!!!PDT:	1909
!!!OTL: No_110_Going_Around_the_World.krn
!!!REG: Great_Lakes
!!!LANG: Non-Tone
!!!LING_GROUP: Algonquin
**kern	**kern
*staff2	*staff1
=1-	=1-
*clefF4	*clefF4
*k[f#c#]	*k[f#c#]
*M3/4	*M3/4
8GG/L	8.e\L
8GG/J	.
.	16e\Jk
8GG/L	8.e\L
8GG/J	.
.	16d\Jk
8GG/L	(16d\LK
.	8B\)
8GG/J	.
.	16B\Jk
=2	=2
2.r	4B\
.	8.B\L
.	16B\Jk
.	4B\
=3	=3
2.r	2.d\
=4	=4
2.r	4d\
.	8.d\L
.	16d\Jk
.	(16d\LK
.	8B\)
.	16B\Jk
=5	=5
2.r	4B\
.	8.B\L
.	16B\Jk
.	4B\
=6	=6
2.r	2.B\
=7	=7
2.r	(16d\LK
.	8B\)
.	16d\Jk
.	(8d\L
.	16.B\L)
.	32G\JJk
.	(16G\LK
.	8E\)
.	16E\Jk
=8	=8
2.r	4E\
.	8.E\L
.	16G\Jk
.	4G\
=9	=9
2.r	(2G\
.	4E\)
=10||	=10||
*M2/4	*M2/4
2r	(16B\LK
.	8.G\J)
.	(4G\
=11	=11
2r	8.E\L)
.	16E\Jk
.	(16E\LK
.	8D\)
.	16D\Jk
=12||	=12||
*M3/4	*M3/4
2.r	4D\
.	(16D/LK
.	8BB/)
.	16BB/Jk
.	4BB/
=13||	=13||
*M2/4	*M2/4
2r	2D\
=14	=14
2r	4E\
.	(4E\
=15	=15
2r	8.D\L)
.	16E\Jk
.	(16E\LK
.	8D\)
.	16D\Jk
=16||	=16||
*M3/4	*M3/4
2.r	4D\
.	(16D/LK
.	8BB/)
.	16BB/Jk
.	4BB/
=17	=17
2.r	2.BB/
==	==
*-	*-
